assets/images/ls.svg

<?xml version="1.0" encoding="UTF-8"?>
<svg xmlns="http://www.w3.org/2000/svg" xmlns:xlink="http://www.w3.org/1999/xlink" width="px" height="px" viewBox="0 0 450 300" version="1.1">
<g id="surface1">
<rect x="0" y="0" width="450" height="300" style="fill:rgb(0%,58.431373%,26.27451%);fill-opacity:1;stroke:none;"/>
<path style=" stroke:none;fill-rule:nonzero;fill:rgb(100%,100%,100%);fill-opacity:1;" d="M 0 0 L 450 0 L 450 210 L 0 210 Z M 0 0 "/>
<path style=" stroke:none;fill-rule:nonzero;fill:rgb(0%,12.54902%,62.352941%);fill-opacity:1;" d="M 0 0 L 450 0 L 450 90 L 0 90 Z M 0 0 "/>
<path style=" stroke:none;fill-rule:nonzero;fill:rgb(0%,0%,0%);fill-opacity:1;" d="M 225.226562 95.058594 L 224.75 95.070312 C 223.714844 95.089844 222.800781 95.640625 222.128906 96.148438 C 195.574219 95.867188 174.28125 74.117188 174.5625 47.566406 C 174.84375 21.015625 196.597656 -0.28125 223.148438 0 L 223.042969 0.117188 C 219.515625 0.738281 216.300781 2.261719 213.738281 4.75 C 210.34375 8.046875 208.179688 12.898438 207.5 19.082031 C 206.804688 25.421875 208.539062 32.488281 210.355469 38.105469 C 212.171875 43.726562 214.160156 47.910156 214.160156 47.910156 L 214.511719 48.65625 L 191.636719 79.460938 L 187.035156 77.867188 L 178.753906 95.535156 L 179.128906 95.773438 C 179.128906 95.773438 198.800781 108.09375 227.324219 107.757812 C 258.59375 107.382812 275.671875 95.191406 275.671875 95.191406 L 276.019531 94.945312 L 267.453125 77.492188 L 263.375 79.265625 L 239.636719 47.863281 L 239.820312 47.933594 C 239.820312 47.933594 241.902344 43.65625 243.765625 37.925781 C 245.628906 32.191406 247.378906 24.988281 246.464844 18.542969 C 245.597656 12.449219 243.679688 7.667969 240.277344 4.421875 C 237.785156 2.042969 234.589844 0.640625 230.863281 0.0820312 L 230.863281 -0.0195312 L 230.722656 -0.160156 C 230.722656 -0.160156 230.253906 -0.652344 229.558594 -1.132812 C 229.320312 -0.714844 229.027344 -0.335938 228.6875 0 Z M 228.710938 102.296875 C 231.226562 102.769531 233.148438 103.742188 234.683594 105.207031 C 236.984375 107.402344 238.597656 110.980469 239.371094 116.414062 C 240.078125 121.394531 238.621094 128.160156 236.867188 133.550781 C 235.792969 136.855469 234.847656 139.148438 234.1875 140.660156 L 230.589844 135.902344 L 230.550781 124.621094 L 236.480469 124.621094 L 228.679688 117.296875 Z M 220.917969 102.371094 L 221.027344 117.53125 L 213.972656 124.921875 L 219.8125 124.921875 L 219.769531 135.859375 L 215.828125 141.171875 C 215.316406 140.0625 214.296875 137.832031 212.972656 133.738281 C 211.261719 128.445312 209.78125 121.769531 210.328125 116.800781 C 210.914062 111.464844 212.675781 107.839844 215.078125 105.507812 C 216.695312 103.9375 218.640625 102.898438 220.917969 102.371094 Z M 261.558594 180.839844 L 262.828125 182.683594 L 259.253906 187.984375 L 255.566406 183.261719 Z M 187.789062 182.570312 L 189.289062 187.179688 L 184.90625 188.101562 C 184.90625 188.101562 187.445312 183.03125 187.789062 182.570312 Z M 192.398438 182.679688 L 198.855469 184.640625 L 200.355469 187.867188 L 194.703125 189.480469 Z M 251.414062 184.753906 L 253.261719 186.714844 L 247.84375 190.980469 L 244.5 186.828125 Z M 263.980469 185.449219 L 266.171875 189.828125 L 261.789062 191.328125 L 261.445312 189.253906 Z M 204.269531 186.140625 L 210.726562 187.523438 L 212.570312 190.289062 L 206.921875 192.480469 Z M 239.3125 187.296875 L 241.039062 189.835938 L 234.585938 192.945312 L 231.820312 188.21875 Z M 216.371094 187.988281 L 226.859375 188.449219 L 227.78125 190.640625 L 219.597656 193.636719 Z M 254.410156 189.019531 L 257.753906 193.515625 L 250.605469 195.359375 L 249.222656 192.9375 Z M 190.320312 189.140625 L 191.242188 192.828125 L 185.710938 190.636719 Z M 201.273438 190.179688 L 204.269531 196.519531 L 196.777344 194.675781 L 195.96875 191.910156 Z M 242.421875 191.789062 L 246.339844 196.398438 L 237.695312 197.785156 L 235.964844 195.019531 Z M 229.167969 192.714844 L 232.972656 198.359375 L 222.828125 198.707031 L 221.097656 195.710938 Z M 213.953125 192.714844 L 217.644531 198.480469 L 208.882812 197.210938 L 207.960938 194.789062 Z M 213.953125 192.714844 "/>
</g>
</svg>

<svg height="600" viewBox="0 0 450 300" width="900" xmlns="http://www.w3.org/2000/svg"><path d="M0 0h450v300H0z" fill="#009543"/><path d="M0 0h450v210H0z" fill="#fff"/><path d="M0 0h450v90H0z" fill="#00209f"/><path d="M225.227 95.059l-.477.01c-1.036.022-1.95.571-2.623 1.081a8.412 8.412 0 00-1.121 1.02l-.104.118c-3.526.62-6.743 2.143-9.306 4.632-3.394 3.295-5.556 8.15-6.237 14.332-.697 6.339 1.04 13.407 2.856 19.025 1.816 5.62 3.803 9.805 3.803 9.805l.352.743-22.876 30.804-4.6-1.59-8.283 17.668.375.236s19.674 12.32 48.196 11.983c31.271-.372 48.35-12.565 48.35-12.565l.345-.246-8.566-17.453-4.077 1.774-23.74-31.403.184.072s2.084-4.28 3.947-10.011 3.613-12.934 2.697-19.381c-.865-6.093-2.782-10.874-6.187-14.123-2.49-2.377-5.687-3.78-9.412-4.339v-.099l-.141-.144s-.471-.49-1.166-.97a5.179 5.179 0 00-2.182-.87zm3.485 7.239c2.516.472 4.437 1.444 5.972 2.909 2.301 2.196 3.915 5.773 4.687 11.209.707 4.977-.75 11.746-2.502 17.133-1.075 3.306-2.02 5.6-2.683 7.11l-3.596-4.757-.041-11.279h5.931l-7.8-7.326zm-7.794.074l.11 15.161-7.055 7.39h5.838l-.041 10.938-3.943 5.309c-.51-1.106-1.532-3.338-2.854-7.43-1.712-5.296-3.192-11.971-2.645-16.941.587-5.333 2.349-8.96 4.75-11.291 1.617-1.57 3.563-2.61 5.84-3.136zm40.642 78.468l1.268 1.845-3.573 5.301-3.689-4.725zm-73.77 1.73l1.498 4.61-4.38.923s2.536-5.072 2.882-5.533zm4.61.11l6.454 1.96 1.5 3.227-5.649 1.613zm59.016 2.075l1.844 1.96-5.417 4.264-3.343-4.149zm12.564.695l2.19 4.38-4.38 1.498-.346-2.074zm-59.71.69l6.455 1.383 1.844 2.766-5.648 2.19zm35.043 1.158l1.728 2.536-6.455 3.111-2.766-4.725zm-22.943.692l10.49.461.921 2.19-8.183 2.997zm38.04 1.03l3.343 4.496-7.147 1.843-1.383-2.42zm-64.09.12l.922 3.688-5.532-2.19zm10.952 1.04l2.997 6.34-7.493-1.843-.806-2.767zm41.148 1.61l3.919 4.61-8.645 1.384-1.73-2.766zm-13.252.923l3.804 5.648-10.143.346-1.73-2.997zm-15.214.002l3.689 5.764-8.761-1.268-.922-2.421z"/></svg>
